icons/female_sex_worker.svg

<svg width="48" height="48" viewBox="0 0 48 48" fill="none" xmlns="http://www.w3.org/2000/svg">
<path fill-rule="evenodd" clip-rule="evenodd" d="M18.9999 9.75C18.9999 11.9591 17.209 13.75 14.9999 13.75C12.7907 13.75 10.9999 11.9591 10.9999 9.75C10.9999 7.54086 12.7907 5.75 14.9999 5.75C17.209 5.75 18.9999 7.54086 18.9999 9.75ZM16.9999 9.75C16.9999 10.8546 16.1044 11.75 14.9999 11.75C13.8953 11.75 12.9999 10.8546 12.9999 9.75C12.9999 8.64543 13.8953 7.75 14.9999 7.75C16.1044 7.75 16.9999 8.64543 16.9999 9.75Z" fill="black"/>
<path fill-rule="evenodd" clip-rule="evenodd" d="M39 18C39 20.2091 37.2091 22 35 22H34V24H32V22H31C28.7909 22 27 20.2091 27 18H29C29 19.1046 29.8954 20 31 20H32V16H31C28.7909 16 27 14.2091 27 12C27 9.79086 28.7909 8 31 8H32V6H34V8H35C37.2091 8 39 9.79086 39 12H37C37 10.8954 36.1046 10 35 10H34V14H35C37.2091 14 39 15.7909 39 18ZM37 18C37 19.1046 36.1046 20 35 20H34V16H35C36.1046 16 37 16.8954 37 18ZM29 12C29 10.8954 29.8954 10 31 10H32V14H31C29.8954 14 29 13.1046 29 12Z" fill="black"/>
<path fill-rule="evenodd" clip-rule="evenodd" d="M26 32.1707C24.8348 32.5825 24 33.6938 24 35V42H26V39H40V42H42V35C42 33.6938 41.1652 32.5825 40 32.1707V26H38V27L28 27V26H26V32.1707ZM32 29L34 29V32H32V29ZM26 35C26 34.4477 26.4477 34 27 34H39C39.5523 34 40 34.4477 40 35V37H26V35ZM36 32V29H38V32H36ZM28 29H30V32H28V29Z" fill="black"/>
<path fill-rule="evenodd" clip-rule="evenodd" d="M16.4786 15.75C16.9089 15.7501 17.6595 15.7976 18.4461 16.1937C19.7769 16.8638 20.5364 17.961 20.9875 18.9303C21.4189 19.8573 21.6676 20.8837 21.8522 21.738C22.0275 22.549 22.0317 22.5696 22.1314 23.0822C22.2268 23.5723 22.4135 24.5316 22.9412 27.1594C23.2673 28.7838 22.2149 30.3651 20.5905 30.6913C20.3303 30.7435 20.0713 30.7604 19.8184 30.7452L20.3576 33.8456C20.5069 34.7044 20.0737 35.6419 19.1476 35.9722C18.2402 36.2958 16.5954 36.75 14.4999 36.75C12.4043 36.75 10.7595 36.2958 9.85208 35.9722C8.92601 35.6419 8.49279 34.7044 8.64213 33.8456L9.18131 30.7454C8.9286 30.7605 8.66975 30.7437 8.40974 30.6915C6.78531 30.3653 5.73287 28.784 6.05905 27.1596C6.58658 24.5323 6.77323 23.5732 6.86863 23.083C6.96838 22.5704 6.97266 22.5492 7.14796 21.7382C7.33264 20.8839 7.58133 19.8575 8.01272 18.9305C8.46383 17.9611 9.22331 16.8639 10.554 16.1939C11.3407 15.7978 12.0911 15.7503 12.5209 15.7502L16.0089 15.7501L16.016 15.7502L16.4786 15.75ZM16.4783 17.75L15.9983 17.7502L15.9908 17.7501L12.5216 17.7502C12.2369 17.7503 11.8428 17.7842 11.4535 17.9802C10.6605 18.3795 10.1632 19.0497 9.82598 19.7743C9.49576 20.4839 9.28421 21.3216 9.10281 22.1608C8.93046 22.9581 8.92808 22.9703 8.83422 23.4526L8.83192 23.4644C8.73573 23.9587 8.54838 24.9214 8.01991 27.5533C7.91118 28.0948 8.26199 28.6219 8.80347 28.7306C9.05455 28.781 9.30304 28.733 9.50865 28.6115L10.6949 22.0872L12.6626 22.445L12.0364 25.8895L12.0605 25.8629L10.6238 34.1234C11.397 34.3894 12.7665 34.75 14.4999 34.75C16.2332 34.75 17.6028 34.3894 18.3759 34.1234L16.9386 25.859L16.9627 25.8856L16.3371 22.445L18.3048 22.0872L19.491 28.611C19.6967 28.7328 19.9454 28.7809 20.1967 28.7304C20.7382 28.6217 21.089 28.0946 20.9803 27.5531C20.4518 24.9213 20.2645 23.9585 20.1683 23.4642L20.166 23.4525C20.0721 22.9701 20.0697 22.9579 19.8974 22.1606C19.716 21.3215 19.5044 20.4838 19.1742 19.7742C18.837 19.0496 18.3397 18.3793 17.5467 17.98C17.1574 17.784 16.7631 17.7501 16.4783 17.75Z" fill="black"/>
<path d="M11.2853 41.6631C10.5474 41.5564 9.99986 40.9241 9.99986 40.1785V37.75C11.3055 37.9298 12.5072 38.0409 13.682 38.0849L12.9385 40.6033C12.7274 41.3183 12.0232 41.7697 11.2853 41.6631Z" fill="black"/>
<path d="M16.0706 40.6336L15.2651 38.1037C16.4729 38.0869 17.6893 37.9991 18.9999 37.8421V40.1785C18.9999 40.918 18.4609 41.5472 17.7301 41.6607C16.9994 41.7743 16.2949 41.3382 16.0706 40.6336Z" fill="black"/>
</svg>

<svg
  xmlns="http://www.w3.org/2000/svg"
  width="24"
  height="24"
  viewBox="0 0 24 24"
  fill="none"
  stroke="currentColor"
  stroke-width="2"
  stroke-linecap="round"
  stroke-linejoin="round"
>
  <path
    fill-rule="evenodd"
    d="M19 9.75a4 4 0 1 1-8 0 4 4 0 0 1 8 0m-2 0a2 2 0 1 1-4 0 2 2 0 0 1 4 0"
    clip-rule="evenodd"
  />
  <path
    fill-rule="evenodd"
    d="M39 18a4 4 0 0 1-4 4h-1v2h-2v-2h-1a4 4 0 0 1-4-4h2a2 2 0 0 0 2 2h1v-4h-1a4 4 0 0 1 0-8h1V6h2v2h1a4 4 0 0 1 4 4h-2a2 2 0 0 0-2-2h-1v4h1a4 4 0 0 1 4 4m-2 0a2 2 0 0 1-2 2h-1v-4h1a2 2 0 0 1 2 2m-8-6a2 2 0 0 1 2-2h1v4h-1a2 2 0 0 1-2-2"
    clip-rule="evenodd"
  />
  <path
    fill-rule="evenodd"
    d="M26 32.17A3 3 0 0 0 24 35v7h2v-3h14v3h2v-7a3 3 0 0 0-2-2.83V26h-2v1H28v-1h-2zM32 29h2v3h-2zm-6 6a1 1 0 0 1 1-1h12a1 1 0 0 1 1 1v2H26zm10-3v-3h2v3zm-8-3h2v3h-2z"
    clip-rule="evenodd"
  />
  <path
    fill-rule="evenodd"
    d="M16.479 15.75c.43 0 1.18.048 1.967.444 1.33.67 2.09 1.767 2.541 2.736.432.927.68 1.954.865 2.808.175.811.18.832.28 1.344.095.49.281 1.45.81 4.077a3 3 0 0 1-3.124 3.586l.54 3.1c.149.86-.284 1.797-1.21 2.127-.908.324-2.553.778-4.648.778-2.096 0-3.74-.454-4.648-.778-.926-.33-1.36-1.268-1.21-2.126l.54-3.1A3 3 0 0 1 6.06 27.16c.527-2.628.713-3.587.809-4.077a46 46 0 0 1 .279-1.345c.185-.854.433-1.88.865-2.808.45-.969 1.21-2.066 2.541-2.736a4.35 4.35 0 0 1 1.967-.444h3.958m0 2H12.52c-.284 0-.678.034-1.068.23-.792.4-1.29 1.07-1.627 1.794-.33.71-.542 1.548-.723 2.387-.173.797-.175.81-.269 1.292l-.002.011c-.096.495-.284 1.457-.812 4.09a1 1 0 0 0 1.489 1.058l1.186-6.525 1.968.358-.627 3.445.024-.027-1.436 8.26c.773.266 2.143.627 3.876.627s3.103-.36 3.876-.627l-1.437-8.264.024.027-.626-3.441 1.968-.358 1.186 6.524a1 1 0 0 0 1.49-1.058c-.53-2.632-.716-3.594-.813-4.089l-.002-.011a44 44 0 0 0-.269-1.292c-.181-.84-.393-1.677-.723-2.387-.337-.724-.834-1.395-1.627-1.794a2.36 2.36 0 0 0-1.069-.23"
    clip-rule="evenodd"
  />
  <path d="M11.285 41.663A1.5 1.5 0 0 1 10 40.18V37.75c1.306.18 2.507.29 3.682.335l-.744 2.518a1.5 1.5 0 0 1-1.653 1.06" />
  <path d="m16.07 40.634-.805-2.53A35 35 0 0 0 19 37.842v2.337a1.5 1.5 0 0 1-2.93.455" />
</svg>
